X: 35
T:Polca Cefn-coed
T:The Cefn-coed Polka
M:2/4
L:1/8
Q:220
S:Cadw Twmpath Collection
R:Polka
A:Wales
Z:brian_martin12345@yahoo.com
K:D
Af dc/B/|AdF2|Ec c/B/A/G/|FdA2|
Af dc/B/|AdF2|Ec c/B/G/E/|Dd d2:||
Bg g/f/e|Aff2|Ge e/d/c|dfa2|
Bg g/f/e|Af f2|Ge e/d/c|ddd2:||
